X:1
T:Franconia (König), SM
T:Franconia (König), SM
T:Johann Balthasar König, 1738
T:Public Domain Courtesy of the Cyber Hymnal™
C:Johann Balthasar König, 1738
Z:Public Domain
Z:Courtesy of the Cyber Hymnal™
%%score ( 1 2 ) ( 3 4 )
L:1/8
Q:1/4=115
M:4/4
K:Eb
V:1 treble 
V:2 treble 
V:3 bass 
V:4 bass 
V:1
 [B,E]2 | [DF]2 [EG]2 [EA]2 [DB]2 | [EG]6 [EB]2 | [Ec]2 [Ee]2 [DA]2 [EG]2 | [DF]6 [FB]2 | %5
 [Ee]2 [Fd]2 [Gc]2 [DB]2 | [Fc]2 c2 [DB]2 [DB]2 | E2 [EG]2 [EF]2 [DF]2 | [B,E]6 |] %9
V:2
 x2 | x8 | x8 | x8 | x8 | x8 | x2 (FE) x4 | E2 x6 | x6 |] %9
V:3
 [E,G,]2 | [B,,B,]2 [E,B,]2 [C,A,]2 [B,,F,]2 | [E,G,]6 [E,G,]2 | A,2 [G,B,]2 [F,A,]2 [E,B,]2 | %4
 [B,,B,]6 [B,D]2 | [G,B,]2 B,2 [E,E]2 D2 | (CB,) [F,=A,]2 [B,,B,]2 [B,,B,]2 | %7
 [C,G,]2 [G,,B,]2 [A,,C]2 (B,A,) | [E,G,]6 |] %9
V:4
 x2 | x8 | x8 | A,2 x6 | x8 | x2 B,2 (G,F,) x2 | E,2 x6 | x6 B,,2 | x6 |] %9

